X:1
T:Phoenix, CMD
T:Phoenix, CMD
T:Leonard N. Fowles, 1918
T:Public Domain Courtesy of the Cyber Hymnal™
C:Leonard N. Fowles, 1918
Z:Public Domain
Z:Courtesy of the Cyber Hymnal™
%%score ( 1 2 ) ( 3 4 )
L:1/8
Q:1/4=110
M:4/4
K:Ab
V:1 treble 
V:2 treble 
V:3 bass 
V:4 bass 
V:1
 [B,E]2 | [A,C]2 [CE]2 [DG]3 [DF] | E2 [EA]2 [Fc]2 [FB]2 | [EG]2 [GB]2 [Ad]2 (cB) | [Ec]6 [Ac]2 | %5
 [FB]2 [EB]2 A3 z B | [EG]2 [=DA]2 [EB]2 [Ec]2 | [EA]2 [EG]2 F3 z G | [=DF]6 [EG]2 | %9
 A3 z B [EG]2 B2 | c3 z B [FA]2 [_EA]2 | [Dd]2 [Ec]2 [FB]2 [FA]2 | [EG]6 [EB]2 | %13
 [Ec]2 [Ece]2 [Fce]2 [FBd]2 | [EAc]2 [GB]2 [FA]2 [FB]2 | [Ec]2 [CA]2 (dc) [DB]2 | [CA]6 |] %17
V:2
 x2 | x8 | E2 x6 | x6 E2 | x8 | x4 E2 =D2 x | x8 | x4 E2 E2 x | x8 | F2 (F2 x GF) x2 | =E2 G2 x5 | %11
 x8 | x8 | x8 | x8 | x4 F2 x2 | x6 |] %17
V:3
 [G,,E,]2 | [A,,E,]2 [A,,A,]2 [B,,E,]3 [B,,G,] | [C,A,]2 [C,A,]2 [D,A,]2 [D,B,]2 | %3
 [E,B,]2 [E,E]2 [F,D]2 [G,D]2 | [A,C]6 [A,E]2 | [A,=D]2 [G,E]2 [G,C]2 [F,B,]2 x | %6
 [E,B,]2 [F,B,]2 [G,B,]2 A,2 | [F,C]2 [G,B,]2 [A,C]2 [=A,C]2 x | [B,=D]6 [E,B,]2 | %9
 [E,C]2 [=D,B,]2 (B,A,) G,2 x | [C,G,]2 [=E,C]2 [F,C]2 (CB,) x | [F,A,]2 [E,A,]2 [D,A,]2 [=D,C]2 | %12
 [E,B,]6 [D,G,]2 | [C,A,]2 [C,A,]2 [D,=A,]2 [D,B,]2 | [E,C]2 [=E,D]2 [F,C]2 [D,F,]2 | %15
 [E,A,]2 [F,A,]2 [B,,A,]2 [E,G,]2 | [A,,A,]6 |] %17
V:4
 x2 | x8 | x8 | x8 | x8 | x9 | x6 A,2 | x9 | x8 | x4 E,2 (E,_D,) x | x6 _G,2 x | x8 | x8 | x8 | %14
 x8 | x8 | x6 |] %17

